packages/web-icons/svgs/minion_pro_4.svg

<svg viewBox="0 0 30 41" xmlns="http://www.w3.org/2000/svg" class="ridi_icon"><path d="M29.4 26h-5.6L28.6.6h-3.9C16.8 8.4 8.7 17.8.9 27l-.5 2.1h16.1l-.8 3.8c-.9 4.4-1.3 4.9-6.5 5.4l-.4 2h17.4l.4-2c-4.7-.4-5-1-4.2-5.4l.8-3.8h5.6l.6-3.1zM21 7.9l-3.9 18H5.7c5-6.3 9.7-12.2 15.2-18h.1z"/></svg>

<?xml version="1.0" encoding="UTF-8"?>
<svg width="30px" height="41px" viewBox="0 0 30 41" version="1.1" xmlns="http://www.w3.org/2000/svg">
  <!-- Generator: Sketch 41.2 (35397) - http://www.bohemiancoding.com/sketch -->
  <title>minion_pro_4</title>
  <desc>Created with Sketch.</desc>
  <defs></defs>
  <g id="Page-1" stroke="none" stroke-width="1" fill="none" fill-rule="evenodd">
    <g id="minion_pro_4" fill="#000000">
      <g id="레이어_1">
        <path d="M29.4,26 L23.8,26 L28.6,0.6 L24.7,0.6 C16.8,8.4 8.7,17.8 0.9,27 L0.4,29.1 L16.5,29.1 L15.7,32.9 C14.8,37.3 14.4,37.8 9.2,38.3 L8.8,40.3 L26.2,40.3 L26.6,38.3 C21.9,37.9 21.6,37.3 22.4,32.9 L23.2,29.1 L28.8,29.1 L29.4,26 L29.4,26 Z M21,7.9 L17.1,25.9 L5.7,25.9 C10.7,19.6 15.4,13.7 20.9,7.9 C20.7,7.9 21,7.9 21,7.9 Z" id="Shape"></path>
      </g>
    </g>
  </g>
</svg>
